X:717
T:Vaqueira, casa las fitsas
R:Vaqueirada
C:Tradicional
S:Msica Tradicional Asturiana, (C) Tello & Tito. Asturies, 2001.
S:http://pagina.de/MusTradAst <telloytito@asturies.org>
A:Asturies
Z:Asturias, canciones
M:3/8
L:1/8
Q:3/8=90
K:G
D|G2 G|GBc|dBc|ded|c2 B|A G2-|G z B|
|: Bdc|B2 c|A G2|[1 G2 B :|[2 G2 z|
